X: 97
T:Mage on a Cree
M:6/8
L:1/8
S:Playford
K:Gm
B>cd/2=e/2 f2 c| A2 F c2 A| B>cd d>cd| B>AG d2 G| B>cd/2=e/2 f2 c| A2 F c2 A |B>cd =efg|^f>=ef g3:|

